X:1
T:Waldesrauchen
T:Gnomenreigen
T:Franz Liszt
%%score { ( 1 3 ) | ( 2 4 ) }
L:1/8
Q:3/8=120
M:6/8
K:A
V:1 treble nm="Piano" snm="Pno."
V:3 treble 
V:2 treble 
V:4 treble 
V:1
"^Presto scherzando"!pp! z z{/!3!F} !wedge!!2!^E{/!3!A} !wedge!!2!G z{/!3!c} !wedge!!2!B | %1
{/!3!d} !wedge!!2!c z{/!3!f} !wedge!!2!^e{/!3!a} !wedge!!2!g z{/!3!c'} !wedge!!2!b | %2
!<(!{/!3!d'} !wedge!!2!c' z!<)!{/!3!c'} !wedge!!2!b{/!3!d'} !wedge!!2!c' z{/!3!c'} !wedge!!2!b | %3
"_più""_dim."{/!3!d'} !wedge!!2!c' z{/!3!c'} !wedge!!2!b{/!3!d'} !wedge!!2!c' z"_mano sinistra" !wedge!!3!c || %4
!pp!"^staccato e leggierissimo"{/!1!!3![fa]} !wedge!c'[I:staff +1]{/!4!!2![cf]}!wedge!a[I:staff -1]{/!1!!2![Ac]}!wedge!!5!f{/!1!!3![Ad]} !wedge!!5!f[I:staff +1]{/!3!F}!wedge!!1!A[I:staff -1]{/!1!!2![DF]}!wedge!!5!B | %5
{/!1!!3![FA]} !wedge!!5!c[I:staff +1]{/!3!F}!wedge!!1!A[I:staff -1]{/C}!wedge!!5!F{/!1!A,} !wedge!!2!C z{/!1!C} !wedge!!3!F | %6
{/!1!!2![C^E]} !wedge!!4!G z{/!1!!2![CE]} !wedge!!4!G{/!1!!3![CF]} !wedge!!5!A z{/!1![CF]} !wedge!!5!A | %7
{/!1!^D} !wedge!!3!F z{/!1!D} !wedge!!3!F{/!1!C} !wedge!!2!^E z{/!1!^e} !wedge!!3!g | %8
!pp!"_sempre"{/!1!!3![fa]} !wedge!c'[I:staff +1]{/!4!!2![cf]}!wedge!!1!a[I:staff -1]{/!1!!2![Ac]}!wedge!!5!f{/!1!!3![Ad]} !wedge!!5!f[I:staff +1]{/!3!F}!wedge!!1!A[I:staff -1]{/!1!!2![DF]}!wedge!!5!B | %9
{/!1!!3![FA]} !wedge!!5!c[I:staff +1]{/!3!F}!wedge!!1!A[I:staff -1]{/!2!C}!wedge!!5!F{/!1!A,} !wedge!!2!C z{/!1!C} !wedge!!3!F | %10
{/!1!!2![C^E]} !wedge!!4!G z{/!1!!2![CE]} !wedge!!4!G{/!1!!3![CF]} !wedge!!5!A z{/!1!!3![CF]} !wedge!!5!A | %11
{/!1!^D} !wedge!!3!F z{/!1!D} !wedge!!3!F{/!1!C} !wedge!!2!^E z{/!1!^e} !wedge!!3!g | %12
 (!>!!4!a/4!wedge!!1!^e/4) z/ z (!4!A/4!wedge!!2!^E/4) z/ (!2!E/4!wedge!!1!C/4) z/ z (!2!^e/4!wedge!!4!a/4) z/ | %13
 (!2!f/4!wedge!!1!d/4) z/ z (!2!F/4!wedge!!1!D/4) z/ (!2!F/4!wedge!!4!A/4) z/!<(! z (!2!f/4!wedge!^a/4) z/!<)! | %14
 (!>!!5!b/4!wedge!!2!f/4) z/ z (!5!B/4!wedge!!2!F/4) z/ (!2!^^F/4!wedge!^D/4) z/ z (!2!^^f/4!wedge!!5!b/4) z/ | %15
 (!3!g/4!wedge!!1!e/4) z/ z (!2!G/4!wedge!!1!E/4) z/!<(! (!2!G/4!wedge!!4!B/4) z/ z (!2!g/4!wedge!!4!^b/4) z/!<)! | %16
 (!>!!5!c'/4!wedge!!2!g/4) z/ z (!3!G/4!wedge!!1!^E/4) z/"_cresc." (!4!A/4!wedge!!2!F/4) z/ z (!1!!2![fa]/4!wedge!!4!^b/4) z/ | %17
 (!>!!5!c'/4!wedge!!2!g/4) z/ z (!3!G/4!wedge!!1!^E/4) z/ (!4!A/4!wedge!!2!F/4) z/ z (!1!!2![fa]/4!wedge!!4!^b/4) z/ | %18
 (!>!!5!c'/4!wedge!!2!g/4) z/ z{/!2!G} !wedge!!1!^E (!^!!5!c'/4!wedge!!2!a/4) z/ z{/!3!A} !wedge!!1!=F | %19
 (!^!!5!c'/4!wedge!!3!a/4) z/ z{/!3!A} !wedge!!1!=F"_un pochettino rallentando"{/!2!A} !wedge!!4!^c{/!2!c} !wedge!!4!=f{/!2!f} !wedge!!4!a || %20
[M:9/8]!p![Q:1/4=200]"^Un poco più animato""_subito"!8va(! !1!c'/"_giocoso, non legato"!2!e'/!5!c''/e'/!1!c'/!2!b/ !1!a/!2!c'/!5!a'/c'/!1!a/!2!g/ !1!f/!2!a/!5!f'/!3!c'/!1!g/!2!a/ | %21
 !1!b/!2!^d'/!5!b'/!3!f'/!1!b/!2!g/ !1!f/!2!b/!5!f'/b/!1!f/e/ !2!^d/!1!e/!2!f/!3!g/!1!a/!2!b/ | %22
 !1!c'/!2!e'/!5!c''/e'/!1!c'/!2!b/ !1!a/!2!c'/!5!a'/c'/!1!a/!2!g/ !1!f/!2!a/!5!f'/!3!c'/!1!g/!2!a/ | %23
 !1!b/^d'/!5!b'/!3!f'/!1!b/!2!g/ !1!f/!2!b/!5!f'/b/!1!f/!3!e/ !2!^d/!1!e/!2!f/!3!g/!1!a/!2!b/ | %24
 !1!c'/!2!e'/!5!c''/!<(!e'/!1!a/!2!b/ !1!c'/!2!e'/!5!c''/e'/!1!^b/!2!c'/ !1!c'/!2!e'/!5!c''/e'/!1!^b/!<)!!2!c'/ | %25
 !3!c'/!1!e'/!4!c''/!3!^a'/!2!=g'/!1!e'/ !4!c'/!3!^a/!<(!!2!=g/!1!e/!2!f/!3!g/!4!^g/!1!=a/!2!^a/!3!b/!4!^b/!5!c'/!<)! | %26
 z/ !2!=f'/!5!d''/!<(!f'/!1!_b/!2!=c'/ !1!d'/!2!f'/!5!d''/f'/!1!d'/!2!^c'/ !1!d'/!2!f'/!5!d''/f'/!1!d'/!<)!!2!c'/ | %27
 !3!d'/!1!=f'/!4!d''/!3!=b'/!2!_a'/!1!f'/ !4!d'/!3!b/!<(!!2!_a/!1!=f/!2!=g/!3!_a/!4!=a/!5!^a/!1!b/!2!=c'/!3!^c'/!4!d'/!<)! | %28
"_cresc." !1!^d'/!2!^f'/!5!^d''/f'/!1!d'/!2!c'/ !1!b/!2!^d'/!5!b'/!3!f'/!1!b/!2!^a/ z/ !1!b/!5!^g'/!3!e'/!1!b/!2!c'/ | %29
 !1!^d'/!2!^f'/!5!^d''/f'/!1!d'/!2!c'/ !1!b/!2!^d'/!5!b'/!3!f'/!1!b/!2!^a/ z/ !1!b/!5!g'/!3!e'/!1!b/!2!c'/ | %30
"_più""_cresc." !1!^d'/!2!f'/!5!^d''/f'/d'/f'/ !1!e'/!2!=g'/!5!e''/g'/e'/g'/ !1!^e'/!2!^g'/!5!^e''/g'/e'/g'/ | %31
 z/ !2!a'/!1!=f'/ !5!=f''/!2!_b'/!<(!!1!f'/ !5!f''/!2!=b'/!1!f'/ !5!f''/!2!=c''/!1!f'/ !5!f''/!2!^c''/!1!f'/ !5!f''/!3!d''/!<)!!1!f'/ || %32
[M:2/4] z/ !1!^g'/4!2!b'/4!^!!5!^e''/4!4!=e''/4!3!^d''/4!2!=d''/4 z !4!b'/4!3!^a'/4!2!=a'/4!1!g'/4 | %33
 z !4!^e'/4!3!=e'/4!2!^d'/4!1!=d'/4!8va)! z !4!b/4!3!^a/4!2!=a/4!1!g/4 | %34
 z !4!^e/4!3!=e/4!2!^d/4!1!=d/4 z !4!B/4!3!^A/4!2!=A/4!1!G/4 || %35
[M:6/8]!p! z2 z !wedge!!2!=D!wedge!!3!^E!wedge!!5!G | %36
!pp! !wedge!!1!C z{/!3!F} !wedge!!2!^E{/!3!A} !wedge!!2!G z{/!3!c} !wedge!!2!B | %37
{/!3!d} !wedge!!2!c z{/!3!f} !wedge!!2!^e{/!3!a} !wedge!!2!g z{/!3!c'} !wedge!!2!b | %38
!<(!{/!3!d'} !wedge!!2!c' z{/!3!c'} !wedge!!2!b{/!3!d'} !wedge!!2!c' z{/!3!c'} !wedge!!2!b!<)! | %39
"_poco rallent."{/!3!d'} !wedge!!2!c' z{/!3!c'} !wedge!!2!b{/!3!d'} !wedge!!2!c' !fermata!z"_mano sinistra""_dim." !tenuto!!3!c | %40
!pp![Q:1/4=160]"^a tempo (come prima)"[Q:3/8=120]{/!1!!3![fa]} !wedge!!5!c'[I:staff +1]{/!4!!2![cf]}!wedge!!1!a[I:staff -1]{/!1!!2![Ac]}!wedge!!5!f{/!1!!3![Ad]} !wedge!!5!f[I:staff +1]{/!3!F}!wedge!!1!A[I:staff -1]{/!1!!2![DF]}!wedge!!5!B | %41
{/!1!!3![FA]} !wedge!!5!c[I:staff +1]{/!3!F}!wedge!!1!A[I:staff -1]{/!2!C}!wedge!!5!F{/!1!A,} !wedge!!2!C z{/!1!C} !wedge!!3!F | %42
{/!1!!2![C^E]} !wedge!!4!G z{/!1!!2![CE]} !wedge!!4!G{/!1!!3![CF]} !wedge!!5!A z{/!1!!3![CF]} !wedge!!5!A | %43
{/!1!^D} !wedge!!3!F z{/!1!D} !wedge!!3!F{/!1!C} !wedge!!2!^E z{/!1!^e} !wedge!!3!g | %44
{/!1!!3![fa]} !wedge!!5!c'[I:staff +1]{/!4!!2![cf]}!wedge!!1!a[I:staff -1]{/!1!!2![Ac]}!wedge!!5!f{/!1!!3![Ad]} !wedge!!5!f[I:staff +1]{/!3!F}!wedge!!1!A[I:staff -1]{/!1!!2![DF]}!wedge!!5!B | %45
{/!1!!3![FA]} !wedge!!5!c[I:staff +1]{/!3!F}!wedge!!1!A[I:staff -1]{/!2!C}!wedge!!5!F{/!1!A,} !wedge!!2!C z{/!1!C} !wedge!!3!F | %46
{/!1!!2![C^E]} !wedge!!4!G z{/!1!!2![CE]} !wedge!!4!G{/!1!!3![CF]} !wedge!!5!A z{/!1!!3![CF]} !wedge!!5!A | %47
{/!1!^D} !wedge!!3!F z{/!1!D} !wedge!!3!F{/!1!C} !wedge!!2!^E z{/!1!^e} !wedge!!3!g | %48
 (!>!!4!a/4!wedge!!1!^e/4) z/ z (!4!A/4!wedge!!2!^E/4) z/ (!2!E/4!wedge!!1!C/4) z/ z (!2!^e/4!wedge!!4!a/4) z/ | %49
 (!2!f/4!wedge!!1!d/4) z/ z (!2!F/4!wedge!!1!D/4) z/ (!2!F/4!wedge!!4!A/4) z/!<(! z (!2!f/4!wedge!!4!^a/4) z/!<)! | %50
 (!>!!5!b/4!wedge!!2!f/4) z/ z (!5!B/4!wedge!!2!F/4) z/ (!2!^^F/4!wedge!!1!^D/4) z/ z (!2!^^f/4!wedge!!5!b/4) z/ | %51
 (!3!g/4!wedge!!1!e/4) z/ z (!2!G/4!wedge!!1!E/4) z/ (!2!G/4!wedge!!4!B/4) z/!<(! z (!2!g/4!wedge!!4!^b/4) z/!<)! | %52
 (!>!!5!c'/4!wedge!!2!g/4) z/ z"_cresc." (!3!G/4!wedge!!1!^E/4) z/ (!4!A/4!wedge!!2!F/4) z/ z (!1!!2![fa]/4!wedge!!4!^b/4) z/ | %53
 (!>!!5!c'/4!wedge!!2!g/4) z/ z (!3!G/4!wedge!!1!^E/4) z/ (!4!A/4!wedge!!2!F/4) z/ z (!1!!2![fa]/4!wedge!!4!^b/4) z/ | %54
 (!>!!5!c'/4!wedge!!2!g/4) z/ z{/!2!G} !wedge!!1!^E (!^!!5!c'/4!wedge!!2!a/4) z/ z{/!3!A} !wedge!!1!=F | %55
 (!^!!5!c'/4!wedge!!3!a/4) z/ z{/!3!A} !wedge!!1!=F{/!2!A} !wedge!!4!^c{/!2!c} !wedge!!4!=f{/!2!f} !wedge!!4!a || %56
[K:Bb][M:9/8]!p![Q:1/4=200]"^Un poco più animato"!8va(! !1!d'/"_giocoso, non legato"!2!f'/!5!d''/f'/!1!d'/!2!c'/ !1!b/!2!d'/!5!b'/d'/!1!b/!2!a/ !1!g/!2!b/!5!g'/!3!d'/!1!a/!2!b/ | %57
 !1!c'/!2!=e'/!5!c''/!3!g'/!1!c'/!2!a/ !1!g/!2!c'/!5!g'/!3!c'/!1!g/!2!f/ !1!=e/!2!f/!3!g/!1!a/!2!b/!3!c'/ | %58
 !1!d'/!2!f'/!5!d''/f'/!1!d'/!2!c'/ !1!b/!2!d'/!5!b'/d'/!1!b/!2!a/ !1!g/!2!b/!5!g'/!3!d'/!1!a/!2!b/ | %59
 !1!c'/!2!=e'/!5!c''/!3!g'/!1!c'/!2!a/ !1!g/!2!c'/!5!g'/!3!c'/!1!g/!2!f/ !1!=e/!2!f/!3!g/!1!a/!2!b/!3!c'/ | %60
 !1!d'/!2!f'/!5!d''/!<(!f'/!1!b/!2!c'/ !1!d'/!2!f'/!5!d''/f'/!1!d'/!2!^c'/ !1!d'/!2!f'/!5!d''/f'/!1!d'/!<)!!2!c'/ | %61
 !1!d'/!2!f'/!5!d''/!4!=b'/!3!_a'/!2!f'/ !1!d'/!3!=b/!<(!!2!_a/!1!f/!2!g/!3!a/!4!=a/!5!_b/!1!=b/!2!c'/!3!^c'/!4!d'/!<)! | %62
 !1!^d'/!2!^f'/!5!^d''/!<(!f'/!1!=b/!2!^c'/ !1!^d'/!2!f'/!5!d''/f'/!1!^^c'/!2!d'/ !1!d'/!2!f'/!5!d''/f'/!1!^^c'/!<)!!2!d'/ | %63
 !1!_e'/!2!^f'/!5!_e''/!4!=c''/!3!a'/!2!f'/ !1!_e'/!5!c'/!<(!!3!a/!1!^f/!2!^g/!3!a/!4!^a/!1!=b/!2!c'/!3!^c'/!4!d'/!5!^d'/!<)! | %64
"_cresc." !1!=e'/!2!g'/!5!=e''/g'/!1!e'/!2!d'/ !1!c'/!2!e'/!5!c''/e'/!1!c'/!2!=b/ z/ !1!c'/!5!a'/!3!f'/!1!c'/!2!d'/ | %65
 !1!=e'/!2!g'/!5!=e''/g'/!1!e'/!2!d'/ !1!c'/!2!e'/!5!c''/e'/!1!c'/!2!=b/ z/ !1!c'/!5!a'/!3!f'/!1!c'/!2!d'/ | %66
"_cresc." !1!=e'/!2!g'/!5!=e''/g'/e'/g'/ !1!f'/!2!_a'/!5!f''/a'/f'/a'/ !1!^f'/!2!=a'/!5!^f''/a'/f'/a'/ | %67
 z/ !2!_b'/!1!^f'/ !5!^f''/!2!=b'/!<(!!1!^f'/ !5!f''/!2!c''/!1!f'/ !5!f''/!2!^c''/!1!f'/ !5!f''/!3!d''/!1!f'/ !5!f''/!3!_e''/!<)!!1!f'/ || %68
[M:2/4][Q:1/4=130]"^130" z/"^velocissimo" !1!a'/4!2!c''/4!^!!4!^f''/4!3!=f''/4!1!=e''/4!3!_e''/4 z !4!c''/4!3!=b'/4!2!_b'/4!1!a'/4 | %69
 z !4!^f'/4!3!=f'/4!2!=e'/4!1!_e'/4 z !4!c'/4!3!=b/4!2!_b/4!1!a/4!8va)! | %70
 z !4!^f/4!3!=f/4!2!=e/4!1!_e/4 z !4!c/4!3!=B/4!2!_B/4!1!A/4 | %71
!p! z2 (3!wedge!!2!_E!wedge!!3!^F!wedge!!5!A | z2 (3!wedge!!1!=C!wedge!!3!_E!wedge!!4!^F | %73
 z2[K:bass]"_più""_dim." (3!wedge!!1!A,!wedge!!3!C!wedge!!5!_E | %74
 (3!wedge!!1!_A,!wedge!!3!C!wedge!!5!E (3!wedge!!1!G,!wedge!!3!C!wedge!!5!E | %75
 (3!wedge!!1!^F,!wedge!!3!C!wedge!!5!E (3!wedge!!1!=A,!wedge!!3!C!wedge!!5!E || %76
[M:6/8][K:treble][Q:1/4=200]"^sempre presto e staccatto" z2 z !wedge!!2!!5![CG] z z | %77
 !wedge!!3!D z z z2 z |"_sempre" z2 z[K:bass]!pp! !wedge!!2!!5![G,C] z z | %79
 !wedge!!1!!3![^F,A,] z z z2 z | z2 z[K:treble] !wedge!!2!!5![CG] z z | !wedge!!3!D z z z2 z | %82
 z2 z[K:bass] !wedge!!2!!5![G,C] z z | !wedge!!1!!3![^F,A,] z z!pp! z2 z | %84
 z2 z!pp! .!2!!4![^F,B,].[F,B,].[F,B,] | !wedge!!1!!2![E,G,] z z !wedge!!2!!4![G,=B,] z z | %86
 z2 z .!1!!2!!5![=E,^G,C].[E,G,C].[E,G,C] | !wedge!!1!!3![F,A,] z z !wedge!!1!!2!!4![F,A,^C] z z | %88
 z2 z .!1!!3!!5![^F,B,D].[F,B,D].[F,B,D] | !wedge!!1!!2![G,B,] z z !wedge!!1!!2!!5![G,=B,E] z z | %90
 !1!!3![_A,C] z z .!1!!2!!5![^G,=B,=E].[G,B,E].[G,B,E] | %91
 !wedge!!1!!3![=A,C] z z !wedge!!1!!2!!5![A,^CF] z z | %92
 !wedge!!1!!3![B,D] z z!pp! !wedge!!1!!2!!5![A,=C^F] z z | %93
 z2 z[K:treble] !wedge!!1!!2!!3![E^FA] z z | z2 z !wedge!!1!!2!!3![^FAc] z z | %95
 z2 z !wedge!!1!!3!!4![Ae^f] z z | %96
"_(Ped. ad libitum)" !wedge!!1!!3!!5![c^fa] z z!8va(! !wedge!!1!!2!!3![fac'] z z | %97
 !wedge!!1!!2!!4![ac'^f'] z z !wedge!!1!!3!!5![c'f'a']!8va)! z z | z6 | z6 | z6 | %101
 z2 z z"_leggiero"!8va(! (!2!^f'/!3!^g'/!1!a'/!2!=b'/ || %102
[K:A]!pp! !wedge!!1!!5![a'c''])!wedge!!3!f'!wedge!!1!c' !wedge!!3!!5![d'f']!wedge!!1!a!wedge!!2!b!8va)! | %103
 !wedge!!1!!3![ac']!wedge!!4!f!wedge!!2!c !wedge!!1!A!wedge!!2!c!wedge!!1!!4![Af] | %104
 !wedge!!2!!5![cg] z !wedge!!1!!3![^EG]!wedge!!2!!4![FA] z !wedge!!1!!5![ca] | %105
 !wedge!!2!!3![^df] z !wedge!!2!!3![^DF]!wedge!!1!!4![^EG] z (3(!1!c/!2!^e/!3!g/ | %106
 !wedge!!1!!5![ac'])!wedge!!3!f!wedge!!1!c !wedge!!3!!5![df]!wedge!!1!A!wedge!!2!B | %107
 !wedge!!1!!3![Ac]!wedge!!4!F!wedge!!2!C !wedge!!1!A,!wedge!!2!C!wedge!!1!!4![A,F] | %108
 !wedge!!2!!5![CG] z[K:bass] !wedge!!1!!3![^E,G,]!wedge!!2!!4![F,A,] z[K:treble] !wedge!!1!!5![CA] | %109
 !wedge!!2!!3![^DF] z[K:bass] !wedge!!2!!3![^D,F,]!wedge!!1!!4![^E,G,] z[K:treble]"^sempre staccato" !wedge!!2!C | %110
 !wedge!!3!!5![^EA]!wedge!!2!C!wedge!!1!A, !wedge!!2!!4![C^E]!wedge!!1!A!wedge!!5!a | %111
 !wedge!!2!!4![df]!wedge!!1!A!wedge!!2!!4![DF] !wedge!!1!A,!wedge!!2!!4![DF]!wedge!!1!!5![^A,^A] | %112
 !wedge!!3!!5![FB]!wedge!!2!^D!wedge!!1!B, !wedge!!2!!4![^D^^F]!wedge!!1!B!wedge!!5!b | %113
 !wedge!!4!!2![eg]!wedge!!1!B!wedge!!2!!4![EG]"^poco a poco" !wedge!!1!B,!wedge!!2!!4![EG]!wedge!!1!!5![^B,^B] | %114
"^cresc." !wedge!!1!!4!!5![CAc]!wedge!!2!^E!wedge!C !wedge!!1!!3!!5![D_Bd]!wedge!!2!^F!wedge!D | %115
 !wedge!!1!!3!!5![^D=B^d]!wedge!!2!=G!wedge!D !wedge!!1!!4!!5![E^Be]!wedge!!2!^G!wedge!E | %116
 (!1!!3!!5![^Ec^e]!wedge!!2!A) (!1!!3!!5![^Fd^f]!wedge!!2!_B) (!1!!3!!5![=G^d=g]!wedge!!2!=B) | %117
 (!1!!3!!5![^G=e^g]!wedge!!2!^B) (!1!!3!!5![A^ea]!wedge!!2!c) (!1!!3!!5![^Af^a]!wedge![=B=gb]) | %118
 !1!!3!!5![^B^g^b]!1!!3!!5![c=ac']!1!!3!!5![d^ad']"^molto     cresc.     e     string."!<(!!8va(! !1!!3!!5![^d=b^d']!1!!3!!5![e^be']!1!!3!!5![^ec'^e']!<)! | %119
[Q:1/4=200]"^200"!<(! !1!!3!!5![f=d'f']!1!!3!!5![=g^d'=g'][Q:1/4=180]"^180"!1!!3!!5![^ge'^g']!<)![Q:1/4=160]"^160" !1!!3!!5![=a^e'=a']!8va)! z z || %120
[K:F#][M:9/8]!ff![Q:1/4=200]"^Vivacissimo"!8va(! !1!a/c'/a'/c'/!1!a/!2!g/ !1!f/a/f'/a/!1!f/!2!e/ !1!d/f/d'/!3!b/!1!d/!2!f/ | %121
 !1!g/b/g'/d'/!1!g/!2!f/!8va)! !1!d/g/!5!d'/!4!c'/!2!g/!1!d/ !2!c/!3!d/!2!c/!1!^B/c/!5!g/ | %122
!8va(! !1!a/c'/a'/c'/!1!a/!2!g/ !1!f/a/f'/a/!1!f/!2!e/ !1!d/f/d'/!3!b/!1!d/!2!f/ | %123
 !1!g/b/g'/d'/!1!g/!2!f/!8va)! !1!d/g/!5!d'/!4!c'/!2!g/!1!d/ !2!c/!3!d/!2!c/!1!^B/c/!5!g/ | %124
!ff!"_sempre"!8va(! !1!a/!2!c'/!5!a'/c'/!1!f/!2!g/ !1!a/c'/a'/c'/!1!^^g/!2!a/ !1!a/c'/a'/c'/!1!g/!2!a/ | %125
 !1!a/c'/!5!a'/!3!^^f'/!2!=e'/!1!c'/!8va)! !3!a/!2!^^f/!1!=e/!3!c/!2!A/!1!^^F/ z/ !1!F/!2!A/!3!c/ !wedge!!5!^^f | %126
!8va(! !1!b/!2!=d'/!5!b'/d'/!1!=g/!2!=a/ !1!b/d'/b'/d'/!1!b/!2!^a/ !1!b/d'/b'/d'/!1!b/!2!^a/ | %127
 !1!b/=d'/!5!b'/!3!^g'/!2!=f'/!1!=d'/!8va)! !4!b/!3!^g/!2!=f/!1!=d/!3!B/!2!G/ z/ !1!G/!2!B/!3!d/ !wedge!!5!g | %128
!8va(! !1!^b/!2!^d'/^b'/d'/!1!b/!2!a/ !1!g/b/g'/b/!1!g/!2!^^f/ !1!^e/!2!g/!5!e'/!3!c'/!1!g/!2!a/ | %129
 !1!^b/d'/!5!^b'/!2!d'/!1!b/!2!a/ !1!g/b/!5!g'/!2!b/!1!g/!2!^^f/ !1!^e/!2!g/!5!e'/!3!c'/!1!g/!2!a/ | %130
 !1!^b/!2!d'/!5!^b'/!3!g'/!2!b/!2!d'/ !1!b/!2!d'/!5!b'/!3!f'/!1!b/!2!d'/ !1!c'/!2!=e'/!<(!!5!c''/!3!^^f'/!1!c'/!2!e'/ | %131
 !1!=d'/!2!^e'/!5!=d''/!3!g'/!1!d'/!2!e'/ !1!^d'/!2!f'/!5!^d''/!3!=a'/!1!d'/!2!f'/ !1!=e'/!2!^^f'/!5!=e''/!3!^a'/!1!e'/!<)!!2!f'/ | %132
[Q:1/4=210]"^il più Presto possibile e fortissimo"!ff! !1!^e'/!2!g'/!5!e''/d''/!3!c''/!2!^b'/ !1!=b'/!2!a'/!4!c''/!3!b'/!1!^^f'/!2!g'/ !4!a'/!3!g'/!1!^^d'/!2!e'/!4!a'/g'/ | %133
 !1!^f'/!2!a'/!5!d''/!4!c''/ !1!c'/!2!f'/!5!b'/!4!a'/ !1!a/!2!c'/!5!g'/!4!f'/ !>!!1!^b/!2!d'/!5!g'/!4!f'/!2!d'/f'/ | %134
 ^e'/g'/e''/d''/c''/^b'/ =b'/a'/c''/b'/^^f'/g'/ a'/g'/^^d'/e'/a'/g'/ | %135
 ^f'/a'/d''/c''/ c'/f'/b'/a'/ a/c'/g'/f'/ !>!^b/d'/g'/f'/d'/f'/ | %136
 !1!e'/!2!g'/!5!e''/d''/!3!c''/!2!^b'/ !1!=b'/!3!a'/!5!c''/!4!b'/!1!^^f'/!3!g'/ !>!!5!b'/!4!a'/!3!g'/^f'/!1!e'/!2!d'/ | %137
 !>!!4!g'/!3!f'/!1!e'/!3!d'/!2!c'/!1!b/ !>!!4!e'/!3!d'/!2!c'/!1!b/!4!a/!3!g/!8va)! !>!!5!b/!4!a/!3!g/!2!f/!1!e/!2!d/ | %138
!>(! !>!!4!g/!3!f/!>)!!1!e/!<(!!3!d/!2!c/!<)!!1!B/!>(! !>!!4!e/!3!d/!>)!!2!c/!<(!!1!B/!3!A/!<)!!2!G/!>(! !>!!5!B/!4!A/!>)!!3!G/!<(!!2!F/!1!E/!<)!!2!D/ || %139
[M:6/8]!>(! !>!!4!G/!3!F/!>)!!1!E/!3!D/!2!C/!3!D/ !1!E/!2!F/!3!G/!4!A/!1!B/!2!c/ | %140
!<(! !3!d/!1!e/!2!f/!3!g/!4!a/!1!b/!8va(! !2!c'/!3!d'/!1!e'/!2!f'/!3!g'/!4!a'/!<)! | %141
"_poco affrettato, con bravura" !wedge!!1!!5![bb']!wedge![^b^b']!wedge![c'c''] !wedge![d'd'']!wedge![c'c'']!wedge![e'e''] | %142
 !wedge![f'f'']!8va)! z z"_sempre staccato""^finale veloce e giocoso" z2 z | %143
 z2 z!p! .!2!!3![B,C].!2!!3![B,C].!2!!3![B,C] | !wedge!!1!!3![A,C] z z !wedge!!1!!5![A,F] z z | %145
 z2 z .!1!!2!!3![=D^EG].!1!!2!!3![DEG].!1!!2!!3![DEG] | %146
 !wedge!!1!!2!!4![CFA] z z !wedge!!1!!3!!5![CAc] z z | %147
"_dim." z2 z"_sempre più piano" .!1!!2!!3![=GBc].!1!!2!!3![GBc].!1!!2!!3![GBc] | %148
 !wedge!!1!!2!!3![FAc] z z !wedge!!1!!2!!5![FAf] z z | %149
 z2 z .!1!!2!!3![=d^eg].!1!!2!!3![deg].!1!!2!!3![deg] | %150
 !wedge!!1!!2!!4![cfa] z z !wedge!!1!!4!!5![cac'] z z | z2 z!8va(! !wedge!!1!!2!!5![^eg^e'] z z | %152
 z2 z !wedge!!1!!2!!5![faf'] z z | z2 z !wedge!!1!!4!!5![ge'g'] z z | z6 | %155
 !arpeggio!!wedge!!1!!2!!3!!5![=a=d'^e'=a'] z z z2 (!1!=d'/!2!^f'/ | %156
!pp! .!3!!5![^a'=d'']).!2!f'.=d' .!3!!5![^ad'].!2!f.=d!8va)! | %157
 .!3!!5![ac'].!2!f.c .!3!!5![fa].!2!c.A | .!3!!5![^a=d'].!2!f.=d .!3!!5![^Ad].!2!F.=D | %159
 .!3!!5![Ac].!2!F.C .!3!!5![FA].!2!C.A, | .!3!!5![^A=d].!2!F.=D[K:bass] .!3!!5![^A,D].!2!F,.=D, | %161
 .!3!!5![A,C].F,.C,!pp!"_legato" (!3!!5![A,=D]F,=D, | !3!!5![A,C]F,C, [A,=D]F,=D, | %163
 !3!!5![A,C]F,C, [A,=D]F,=D, | [A,C]F,C,)!ppp! .!2!F,.!3!A,.!1!C | %165
[K:treble] .!2!F.!3!A.!1!c .!2!f.!3!a.!1!!5(3)![fc'] | %166
!8va(! .!1(2)!!3(5)![af'] z z .!1!!5(3)![c'a'] z z | %167
 .!1(2)!!3(5)![f'c'']!8va)! z z !fermata!z2 z |] %168
V:2
 z{/!2!D} !wedge!!3!C z z{/!2!A} !wedge!!3!G z | z{/!2!d} !wedge!!3!c z z{/!2!a} !wedge!!3!g z | %2
!ped! z{/!3!g} !wedge!!2!b z z!>(!{/!3!^e} !wedge!!2!g z!>)! | %3
 z{/!3!g} !wedge!!2!b z z{/!3!^e} !wedge!!2!g z!ped-up! ||!ped! z z z!ped-up!!ped! z z z!ped-up! | %5
!ped! z z z z[K:bass]{/!3!F,} !wedge!!1!A, z!ped-up! | %6
!ped! z{/!5!C,} !wedge!!1!C z!ped-up!!ped! z{/!3!F,} !wedge!!1!C z!ped-up! | %7
!ped! z{/!3!A,} !wedge!!1!^B, z!ped-up!!ped! z[K:treble]{/!3!G} !wedge!!1!c z!ped-up! | %8
!ped! z z z!ped-up!!ped! z z z!ped-up! |!ped! z z z z[K:bass]{/!3!F,} !wedge!!1!A, z!ped-up! | %10
!ped! z{/!5!C,} !wedge!!1!C z!ped-up!!ped! z{/!3!F,} !wedge!!1!C z!ped-up! | %11
!ped! z{/!3!A,} !wedge!!1!^B, z!ped-up!!ped! z[K:treble]{/!3!G} !wedge!!1!c z!ped-up! | %12
!ped! z{/!3!A} !wedge!!1!c z z{/!3!A} !wedge!!1!c z!ped-up! | %13
!ped! z{/!3!F} !wedge!!1!A z z!ped-up! (!3!^A/4!wedge!!1!d/4) z/ z | %14
!ped! z{/!3!B} !wedge!!1!^d z!ped-up!!ped! z{/!3!B} !wedge!!1!d z!ped-up! | %15
!ped! z{/!3!G} !wedge!!1!B z z!ped-up! (!3!^B/4!wedge!!1!e/4) z/ z | %16
!ped! z{/!3!c} !wedge!!1!^e z!ped-up!!ped! z{/!4!^B} !wedge!!2!^d z!ped-up! | %17
!ped! z{/!3!c} !wedge!!1!^e z!ped-up!!ped! z{/!4!^B} !wedge!!2!^d z!ped-up! | %18
!ped! z{/!3!c} !wedge!!1!^e z!ped-up!!ped! z{/!3!c} !wedge!!1!=f z | %19
 z{/!3!c} !wedge!!1!=f z z2 z!ped-up! || %20
[M:9/8]!ped! !5!!2!!1![EAc][EAc][EAc] [EAc][EAc][EAc] !wedge![EAc]!ped-up! z z | %21
!ped! !5!!4!!2!!1![EFA^d][EFAd][EFAd]!ped-up!!ped! !wedge!!5!!3!!2!!1![EGB=d] z z!ped-up! z2 z | %22
!ped! !5!!2!!1![EAc][EAc][EAc] [EAc][EAc][EAc] !wedge![EAc]!ped-up! z z | %23
!ped! !5!!4!!2!!1![EFA^d][EFAd][EFAd]!ped-up!!ped! !wedge!!5!!3!!2!!1![EGB=d] z z!ped-up! z2 z | %24
!ped! !5!!3!!1![Ace][Ace][Ace] !5!!3!!1![Gce][Gce][Gce]!ped-up!!ped! !5!!3!!1![=Gce][Gce][Gce]!ped-up! | %25
!ped! !arpeggio!!wedge!!^!!5!!3!!2!!1![E^Ac=g] z z!ped-up!!ped! !wedge!!5!!3!!2!!1![FAce] z z z2 z!ped-up! | %26
!ped! !5!!3!!1![_Bd=f][Bdf][Bdf] !5!!2!!1![Adf][Adf][Adf]!ped-up!!ped! !5!!2!!1![_Adf][Adf][Adf]!ped-up! | %27
!ped! !arpeggio!!wedge!!^!!5!!3!!2!!1![=F=Bd_a] z z!ped-up!!ped! !wedge!!5!!3!!2!!1![=GBd=f] z z z2 z!ped-up! | %28
!ped! !5!!3!!2![B^d^f][Bdf][Bdf] [Bdf][Bdf][Bdf]!ped-up!!ped! !wedge!!^!!5!!2!!1![Be^g] z z!ped-up! | %29
!ped! !5!!3!!2![B^df][Bdf][Bdf] [Bdf][Bdf][Bdf]!ped-up!!ped! !wedge!!^!!5!!2!!1![Beg] z z!ped-up! | %30
!ped! !5!!3!!2![B^df][Bdf][Bdf]!ped-up!!ped! !3!!1![Be=g][Beg][Beg]!ped-up!!ped! !5!!2!!1![B^e^g][Beg][Beg]!ped-up! | %31
!ped!"_molto marcato" (6:9:6!wedge!!5!!1![=ca] !wedge!!5!!1![_d_b]!ped-up!!ped! !wedge!!5!!1![=d=b] !wedge!!5!!1![_e=c']!ped-up!!ped! !wedge!!5!!1![=e^c'] !wedge!!5!!1![=fd']!ped-up! || %32
[M:2/4]!8va(!!ped! !5!!3!!2!!1![^gbd'^e'] z !>!!1!b'/4!2!^a'/4!3!=a'/4!4!g'/4 z | %33
 !>!!1!^e'/4!2!=e'/4!3!^d'/4!4!=d'/4!8va)! z !>!!1!b/4!2!^a/4!3!=a/4!4!g/4 z | %34
 !>!!1!^e/4!2!=e/4!3!^d/4!4!=d/4 z"^dim." !>!!1!B/4!2!^A/4!3!=A/4!4!G/4 z!ped-up! || %35
[M:6/8] !wedge!!1!^E!wedge!!2!=E!wedge!!3!^D z2 z | z{/!2!D} !wedge!!3!C z z{/!2!A} !wedge!!3!G z | %37
 z{/!2!d} !wedge!!3!c z z{/!2!a} !wedge!!3!g z | %38
!ped! z{/!3!g} !wedge!!1!b z z{/!3!^e} !wedge!!1!g z | %39
 z{/!3!g} !wedge!b z z{/!3!^e} !wedge!!1!g !fermata!z!ped-up! | %40
!ped! z z z!ped-up!!ped! z z z!ped-up! |!ped! z z z!ped! z[K:bass]{/!3!F,} !wedge!!1!A, z!ped-up! | %42
!ped! z{/!5!C,} !wedge!!1!C z!ped-up!!ped! z{/!3!F,} !wedge!!1!C z!ped-up! | %43
!ped! z{/!3!A,} !wedge!!1!^B, z!ped-up!!ped! z[K:treble]{/!3!G} !wedge!!1!c z!ped-up! | %44
!ped! z z z!ped-up!!ped! z z z!ped-up! |!ped! z z z z[K:bass]{/!3!F,} !wedge!!1!A, z!ped-up! | %46
!ped! z{/!5!C,} !wedge!!1!C z!ped-up!!ped! z{/!3!F,} !wedge!!1!C z!ped-up! | %47
!ped! z{/!3!A,} !wedge!!1!^B, z!ped-up!!ped! z[K:treble]{/!3!G} !wedge!!1!c z!ped-up! | %48
!ped! z{/!3!A} !wedge!!1!c z z{/!3!A} !wedge!!1!c z!ped-up! | %49
!ped! z{/!3!F} !wedge!!1!A z z (!3!^A/4!wedge!!1!d/4) z/ z!ped-up! | %50
!ped! z{/!3!B} !wedge!!1!^d z!ped-up!!ped! z!ped-up!{/!3!B} !wedge!!1!d z | %51
!ped! z{/!3!G} !wedge!!1!B z z (!3!^B/4!wedge!!1!e/4) z/ z!ped-up! | %52
!ped! z{/!3!c} !wedge!!1!^e z!ped-up!!ped! z!ped-up!{/!4!^B} !wedge!!2!^d z | %53
!ped! z{/!3!c} !wedge!!1!^e z!ped-up!!ped! z{/!4!^B} !wedge!!2!^d z!ped-up! | %54
!ped! z{/!3!c} !wedge!!1!^e z!ped-up!!ped! z{/!3!c} !wedge!!1!=f z!ped-up! | %55
 z{/!3!c} !wedge!!1!=f z z2 z || %56
[K:Bb][M:9/8]!ped! [FBd][FBd][FBd] [FBd][FBd][FBd]!ped-up! !wedge![FBd] z z | %57
!ped! [FGB=e][FGBe][FGBe]!ped-up!!ped! !wedge![FAc_e] z z z2!ped-up! z | %58
!ped! !5!!2!!1![FBd][FBd][FBd] [FBd][FBd][FBd]!ped-up! !wedge![FBd] z z | %59
!ped! !5!!4!!2!!1![FGB=e][FGBe][FGBe]!ped-up!!ped! !wedge!!5!!3!!2!!1![FAc_e] z z z2!ped-up! z | %60
!ped! !4!!2!!1![Bdf][Bdf][Bdf] !5!!2!!1![Adf][Adf][Adf]!ped-up!!ped! !5!!2!!1![_Adf][Adf][Adf] | %61
!ped! !arpeggio!!wedge!!^!!5!!3!!2!!1![F=Bd_a] z z!ped-up!!ped! !arpeggio!!wedge!!^!!5!!3!!2!!1![G=Bdf] z z z2 z!ped-up! | %62
!ped! !4!!2!!1![=B^d^f][Bdf][Bdf] !5!!2!!1![^Adf][Adf][Adf]!ped-up!!ped! !5!!2!!1![=Adf][Adf][Adf]!ped-up! | %63
!ped! !arpeggio!!wedge!!^!!5!!3!!2!!1![^Fc_ea] z z!ped-up!!ped! !arpeggio!!wedge!!^!!5!!3!!2!!1![^Gc_e^f] z z z2 z!ped-up! | %64
!ped! !5!!3!!1![c=e=g][ceg][ceg] [ceg][ceg][ceg]!ped-up!!ped! !wedge!!^!!5!!2!!1![cfa] z z!ped-up! | %65
!ped! [c=eg][ceg][ceg] [ceg][ceg][ceg]!ped-up!!ped! !wedge!!^![cfa] z z!ped-up! | %66
!ped! !5!!3!!1![c=eg][ceg][ceg]!ped-up!!ped! !5!!2!!1![cf_a][cfa][cfa]!ped-up!!ped! !5!!2!!1![c^f=a][cfa][cfa]!ped-up! | %67
!ped!"_molto marcato" (6:9:6!wedge!!5!!1![^c_b] !wedge!!5!!1![d=b]!ped-up!!ped! !wedge!!5!!1![_ec'] !wedge!!5!!1![=e^c']!ped-up!!ped! !wedge!!5!!1![^ed'] !wedge!!5!!1![^f_e']!ped-up! || %68
[M:2/4]!8va(!!ped! !5!!4!!2!!1![ac'e'^f'] z !>!!1!c''/4!2!=b'/4!3!_b'/4!4!a'/4 z | x5!ped-up! %69
 !>!!1!^f'/4!2!=f'/4!3!=e'/4!4!_e'/4 z !>!!1!c'/4!2!=b/4!3!_b/4a/4!8va)! z | %70
 !>!!1!^f/4!2!=f/4!3!=e/4!4!_e/4"_dim." z !>!!1!c/4!2!=B/4!3!_B/4!4!A/4 z | %71
"^leggiero" (3!wedge!!2!^F!wedge!!1!=F!wedge!!2!=E z2 | (3!wedge!!2!_E!wedge!!1!D!wedge!!2!^C z2 | %73
[K:bass] (3!wedge!!1!C!wedge!!2!=B,!wedge!!3!_B, z2 | z4 | z4 || %76
[M:6/8]!pp! !wedge!!2!D!wedge!!4!B,!wedge!!1!G, !wedge!!3!E,!wedge!!2!G,!wedge!!1!A, | %77
 !wedge!!2!B,!wedge!!1!G,!wedge!!2!D, !wedge!!4!B,,!wedge!!1!G,!wedge!!2!E, | %78
 !wedge!!1!D,!wedge!!2!^C,!wedge!!1!D, !wedge!!3!E,!wedge!!2!F,!wedge!!3!E, | %79
 !wedge!!1!D,!wedge!!2!^C,!wedge!!1!D, !wedge!!2!^F,!wedge!!1!A,!wedge!!3!^C | %80
 !wedge!!2!D!wedge!!4!B,!wedge!!1!G, !wedge!!3!E,!wedge!!2!G,!wedge!!1!A, | %81
 !wedge!!2!B,!wedge!!1!G,!wedge!!2!D, !wedge!!4!B,,!wedge!!1!G,!wedge!!2!E, | %82
 !wedge!!1!D,!wedge!!2!^C,!wedge!!1!D, !wedge!!3!E,!wedge!!2!F,!wedge!!3!E, | %83
 !wedge!!1!D,!wedge!!2!A,,!wedge!!3!^F,, !wedge!!1!D,,!wedge!!3!D,,!wedge!!2!D,, | %84
 !3!D,,!2!D,,!1!D,, !3!D,,!2!D,,!1!D,, | !3!D,,!2!D,,!1!D,, !3!D,,!2!D,,!1!D,, | %86
 !3!D,,!2!D,,!1!D,, !3!D,,!2!D,,!1!D,, | !3!D,,!2!D,,!1!D,, !3!D,,!2!D,,!1!D,, | %88
 !3!D,,!2!D,,!1!D,, !3!D,,!2!D,,!1!D,, | !3!D,,!2!D,,!1!D,, !3!D,,!2!D,,!1!D,, | %90
 !3!D,,!2!D,,!1!D,, !3!D,,!2!D,,!1!D,, | !3!D,,!2!D,,!1!D,, !3!D,,!2!D,,!1!D,, | %92
 !3!D,,!2!D,,!1!D,, !3!E,,!2!E,,!1!E,, | !3!D,,!2!D,,!1!D,, !3!C,,!2!C,,!1!C,, | %94
 !3!D,,!2!D,,!1!D,, !3!E,,!2!E,,!1!E,, | !3!D,,!2!D,,!1!D,, !3!C,,!2!C,,!1!C,, | %96
 !3!D,,!2!D,,!1!D,, !3!E,,!2!E,,!1!E,, | !3!D,,!2!D,,!1!D,, !3!E,,!2!E,,!1!E,, | %98
!<(! !3!^F,,!2!F,,!1!F,, !3!A,,!2!A,,!1!A,,!<)! |!>(! !3!B,,!2!B,,!1!B,, !3!A,,!2!A,,!1!A,,!>)! | %100
 !3!^F,,!2!F,,!1!F,, !3!E,,!2!E,,!1!E,, | !3!E,,!2!E,,!1!E,, !3!D,,!2!D,,!1!D,, || %102
[K:A]!ped! !3!C,,!2!C,,!1!C,, !3!C,,!ped-up!!2!C,,!1!C,, | !3!C,,!2!C,,C,, !3!C,,!2!C,,!1!C,, | %104
 !3!C,,!2!C,,!1!C,, !3!C,,!2!C,,!1!C,, | !3!C,,!2!C,,!1!C,, !3!C,,!2!C,,!1!C,, | %106
!ped! !3!C,,!2!C,,!1!C,, !3!C,,!2!C,,!1!C,,!ped-up! | !3!C,,!2!C,,!1!C,, !3!C,,!2!C,,!1!C,, | %108
 !3!C,,!2!C,,!1!C,, !3!C,,!2!C,,!1!C,, | !3!C,,!2!C,,!1!C,, !3!C,,!2!C,,!1!C,, | %110
!ped! !wedge!!3!C,, !wedge!!1!^E,!wedge!!3!C, !wedge!!5!C,, !wedge!!1!E,!wedge!!3!C,!ped-up! | %111
!ped! !wedge!C,, !wedge!!1!F,!wedge!!2!D, !wedge!C,, !wedge!!1!F,!wedge!!2!D,!ped-up! | %112
!ped! !wedge!C,, !wedge!!1!F,!wedge!!2!^D,!ped-up!!ped! !wedge!C,, !wedge!!1!^^F,!wedge!!2!D,!ped-up! | %113
!ped! !wedge!C,, !wedge!!1!G,!wedge!!2!E, !wedge!C,, !wedge!!1!G,!wedge!!2!E,!ped-up! | %114
!ped! !wedge!C,, !wedge!!1!A,!wedge!!3!^E, !wedge!!3!^F,!wedge!!1!_B,!wedge!!3!F,!ped-up! | %115
!ped! !wedge!C,, !wedge!!1!=B,!wedge!!3!=G, !wedge!!3!^G,!wedge!!1!^B,!ped-up!!wedge!!3!G, | %116
!ped! (!4!A,!wedge!!2!C) (!3!_B,!wedge!!1!D)!ped-up!!ped! (!4!=B,!ped-up!!wedge!!2!^D) | %117
 (!4!^B,!wedge!!2!E)!ped-up!!ped! (!3!C!wedge!!1!^E)[K:treble] !4!!2![DF]!4!!2![^D=G] | %118
!ped! !4!!2![=E^G]!4!!2![^EA]!4!!2![F^A] !4!!2![=GB]!4!!2![^G^B]!4!!2![=Ac]!ped-up! | %119
 !4!!2![^Ad]!3!!1![B^d]!4!!2![^Be] !3!!1![c^e] z z || %120
[K:F#][M:9/8][K:bass]!ped! [F,,F,][K:treble] !5!!2!!1![CFA][CFA] [CFA]!ped-up![CFA][CFA]!ped-up!!ped! !4!!2!!1![DFB] z z | %121
[K:bass] !5!!3!!1![F,B,D][F,B,D][F,B,D]!ped-up!!ped! !5!!2!!1![B,EG] z z z2 z | %122
!ped! [F,,F,][K:treble] !5!!2!!1![CFA][CFA] [CFA][CFA][CFA]!ped-up!!ped! !4!!2!!1![DFB] z!ped-up! z | %123
[K:bass] !5!!3!!1![F,B,D][F,B,D][F,B,D]!ped-up!!ped! !5!!2!!1![B,EG] z z z2 z | %124
!ped! !>!F,[K:treble] !5!!2!!1![CFA][CFA][K:bass] !>!^E,[K:treble] [CFA][CFA][K:bass]!ped-up!!ped! !>!=E,[K:treble] [CFA]!ped-up![CFA] | %125
!ped! !wedge!!5!!2!!1![C^^FA] z z[K:bass]!ped-up!!ped! !arpeggio!!5!!3!!2!!1![D,A,C^^F] z z{/!1!=E} !>!!wedge!!2!D/ x/ x2!ped-up! | %126
!ped! !>!=G,[K:treble] !1!!2!!5![=D=GB][DGB][K:bass] !>!^F,[K:treble] [=D=GB][DGB][K:bass]!ped-up!!ped! !>!=F,[K:treble] [DGB][DGB]!ped-up! | %127
!ped! !wedge!!^!!5!!2!!1![=D^GB] z z[K:bass]!ped-up!!ped! !arpeggio!!5!!3!!2!!1![=E,B,=DG] z z{/!1!=F} !>!!wedge!!2!=E/ x/ x2!ped-up! | %128
!ped! [^G,,^G,][K:treble] !5!!3!!1![^DG^B][DGB] [DGB][DGB][DGB]!ped-up!!ped! [^EGc] z z!ped-up! | %129
[K:bass] [G,,G,][K:treble] !5!!3!!1![DG^B][DGB] [DGB][DGB][DGB] !4!!2!!1![EGc] z z | %130
!ped! z !4!!2!!1![DG^B][DGB]!ped-up!!ped! z !4!!3!!1![DFB][DFB]!ped-up!!ped! z !4!!3!!1![=E^^Fc][EFc]!ped-up! | %131
!ped! z !3!!2!!1![^EG=d][EGd]!ped-up!!ped! z !3!!2!!1![F=A^d][FAd]!ped-up!!ped! z !3!!2!!1![^^F^A=e][FAe]!ped-up! | %132
!f!!ped! !5!C!<(! !5!!4!!1![GB^e][GBe] [GBe][GBe][GBe]!<)! [GBe] z z!ped-up! | %133
"_marcato"!<(!!ped! !wedge!!5!C!wedge!!2!F!wedge!!1!A !wedge!!4!c!wedge!!2!f!<)!!wedge!!1!a!ped-up!!ped! !wedge!!^!!1!=a!wedge!!2!f!wedge!!1!^B!ped-up! | %134
!ped! C!<(! [G=Be][GBe] [GBe][GBe][GBe]!<)! [GBe] z z!ped-up! | %135
"_marcato"!<(!!ped! !wedge!C!wedge!F!wedge!A !wedge!c!wedge!f!<)!!wedge!a!ped-up!!ped! !wedge!!^!=a!wedge!f!wedge!^B!ped-up! | %136
!ped! !5!C !5!!3!!1![G=Be][GBe] [GBe] z z !>!!2!d'/!3!c'/!1!b/!2!a/!3!g/!4!f/!ped-up! | %137
 !>!!1!b/!2!a/!3!g/!4!f/!1!e/!4!d/ !>!!2!g/!3!f/!1!e/!2!d/!3!c/!4!B/ !>!!2!d/!3!c/!1!B/A/!3!G/!4!F/ | %138
 !>!!1!B/!2!A/!3!G/!4!F/!1!E/!4!D/ !>!!2!G/!3!F/!1!E/!2!D/!3!C/!4!B,/[K:bass] !>!!2!D/!3!C/!1!B,/!2!A,/!3!G,/!4!F,/ || %139
[M:6/8] !>!!1!B,/!2!A,/!ped-up!!3!G,/!4!F,/!ped!!5!E,/!4!F,/ !3!G,/!2!A,/!1!B,/!3!C/!2!D/!3!C/ | %140
 !1!B,/!2!A,/!3!G,/!4!F,/!1!E,/!2!D,/ !3!C,/!1!B,,/!2!A,,/!3!G,,/!4!F,,/!5!E,,/- | %141
 !wedge!!5!!1![E,,E,]!wedge![D,,D,]!wedge![C,,C,] !wedge![B,,,B,,]!wedge![A,,,A,,]!wedge![G,,,G,,] | %142
 !wedge![F,,,F,,] z z!p!"_stacatissimo" !wedge!!3!F,,!wedge!!2!F,,!wedge!!1!F,, | %143
 !wedge!!3!=G,,!wedge!!2!G,,!wedge!!1!G,, !wedge!!3!=E,,!wedge!!2!E,,!wedge!!1!E,, | %144
 !wedge!!3!F,,!wedge!!2!F,,!wedge!!1!F,, !wedge!!3!C,,!wedge!!2!C,,!wedge!!1!C,, | %145
 !wedge!!3!=D,,!wedge!!2!D,,!wedge!!1!D,, !wedge!!3!B,,,!wedge!!2!B,,,!wedge!!1!B,,, | %146
 !wedge!!3!C,,!wedge!!2!C,,!wedge!!1!C,, !wedge!!3!F,,!wedge!!2!F,,!wedge!!1!F,, | %147
 !wedge!!3!=G,,!wedge!!2!G,,!wedge!!1!G,, !wedge!!3!=E,,!wedge!!2!E,,!wedge!!1!E,, | %148
 !wedge!!3!F,,!wedge!!2!F,,!wedge!!1!F,, !wedge!!3!C,,!wedge!!2!C,,!wedge!!1!C,, | %149
 !wedge!!3!=D,,!wedge!!2!D,,!wedge!!1!D,, !wedge!!3!B,,,!wedge!!2!B,,,!wedge!!1!B,,, | %150
 !wedge!!3!C,,!wedge!!2!C,,!wedge!!1!C,, !wedge!!3!F,,!wedge!!2!F,,!wedge!!1!F,, | %151
 !wedge!!3!=D,,!wedge!!2!D,,!wedge!!1!D,, !wedge!!3!B,,,!wedge!!2!B,,,!wedge!!1!B,,, | %152
 !wedge!!3!C,,!wedge!!2!C,,!wedge!!1!C,, !wedge!!3!F,,!wedge!!2!F,,!wedge!!1!F,, | %153
!ped! !wedge!!3!=D,,!ped-up!!wedge!!2!D,,!wedge!!1!D,, !wedge!!3!B,,,!wedge!!2!B,,,!wedge!!1!B,,, | %154
!ppp!"_staccatto sempre" !wedge!!3!=D,,!wedge!!2!D,,!wedge!!1!D,, !wedge!!3!D,,!wedge!!2!D,,!wedge!!1!D,, | %155
!ped! !wedge!!3!B,,,!wedge!!2!B,,,!wedge!!1!B,,, !wedge!!3!B,,,!wedge!!2!B,,,!wedge!!1!B,,,!ped-up! | %156
!ped! !wedge!!3!F,,,!wedge!!2!F,,,!wedge!!1!F,,, !wedge!!3!F,,,!wedge!!2!F,,,!wedge!!1!F,,,!ped-up! | %157
!ped! !wedge!!3!F,,,!wedge!!2!F,,,!wedge!!1!F,,, !wedge!!3!F,,,!wedge!!2!F,,,!wedge!!1!F,,,!ped-up! | %158
!ped! !wedge!!3!F,,,!wedge!!2!F,,,!wedge!!1!F,,, !wedge!!3!F,,,!wedge!!2!F,,,!wedge!!1!F,,,!ped-up! | %159
!ped! !wedge!!3!F,,,!wedge!!2!F,,,!wedge!!1!F,,, !wedge!!3!F,,,!wedge!!2!F,,,!wedge!!1!F,,,!ped-up! | %160
!ped! !wedge!!3!F,,,!wedge!!2!F,,,!wedge!!1!F,,, !wedge!!3!F,,,!wedge!!2!F,,,!wedge!!1!F,,,!ped-up! | %161
!ped! !wedge!!3!F,,,!wedge!!2!F,,,!wedge!!1!F,,, (!wedge!!5!F,,,!wedge!!2!=D,,!wedge!!1!F,,!ped-up! | %162
 !5!F,,,!3!C,,F,, !5!F,,,!2!=D,,F,, | F,,,!3!C,,F,, F,,,!2!=D,,F,, | %164
"_Ped. sin al Fine del pezzo"!ped! F,,,C,,F,,)!ped-up! .!3!A,,.!2!C,.!1!F, | %165
 .!3!A,.!2!C[K:treble].!1!F .!3!A.!2!c.A | .!2!c z z .!1(3)!f z z | .!3(2)!a z z !fermata!z2 z |] %168
V:3
 x6 | x6 | x6 | x6 || x6 | x6 | x6 | x6 | x6 | x6 | x6 | x6 | x6 | x6 | x6 | x6 | x6 | x6 | x6 | %19
 x6 ||[M:9/8]!8va(! c' x c'/b/ a x a/g/ f x g/a/ | b x b/g/ f x f/e/ x3 | %22
 c' x c'/b/ a x a/g/ f x g/a/ | b x b/g/ f x f/e/ x3 | c' x a/b/ c' x ^b/c'/ c' x b/c'/ | c' x8 | %26
 !1!d' x _b/=c'/ d' x d'/^c'/ d' x d'/c'/ | d' x8 | ^d' x d'/c'/ b x b/^a/ x2 b/c'/ | %29
 ^d' x d'/c'/ b x b/^a/ x2 b/c'/ | ^d' x2 e' x2 ^e' x2 | x9 ||[M:2/4] x4 | x2!8va)! x2 | x4 || %35
[M:6/8] x6 | x6 | x6 | x6 | x6 | x6 | x6 | x6 | x6 | x6 | x6 | x6 | x6 | x6 | x6 | x6 | x6 | x6 | %53
 x6 | x6 | x6 ||[K:Bb][M:9/8]!8va(! d' x d'/c'/ b x b/a/ g x a/b/ | c' x c'/a/ g x5 | %58
 d' x d'/c'/ b x b/a/ g x a/b/ | c' x c'/a/ g x5 | d' x b/c'/ d' x d'/^c'/ d' x d'/c'/ | d' x8 | %62
 ^d' x =b/^c'/ d' x ^^c'/d'/ d' x c'/d'/ | e' x8 | =e' x e'/d'/ c' x c'/=b/ x3 | %65
 =e' x e'/d'/ c' x c'/=b/ x3 | =e' x2 f' x2 ^f' x2 | x9 ||[M:2/4] x4 | x4!8va)! | x4 | x4 | x4 | %73
 x2[K:bass] x2 | x4 | x4 ||[M:6/8][K:treble] x6 | x6 | x3[K:bass] x3 | x6 | x3[K:treble] x3 | x6 | %82
 x3[K:bass] x3 | x6 | x6 | x6 | x6 | x6 | x6 | x6 | x6 | x6 | x6 | x3[K:treble] x3 | x6 | x6 | %96
 x3!8va(! x3 | x4!8va)! x2 | x6 | x6 | x6 | x4!8va(! x2 ||[K:A] x6!8va)! | x6 | x6 | x6 | x6 | x6 | %108
 x2[K:bass] x3[K:treble] x | x2[K:bass] x3[K:treble] x | x6 | x6 | x6 | x6 | x6 | x6 | x6 | x6 | %118
 x3!8va(! x3 | x4!8va)! x2 ||[K:F#][M:9/8]!8va(! a x a/g/ f x f/e/ d x d/f/ | %121
 g x g/f/!8va)! !^!d x5 |!8va(! a x a/g/ f x f/e/ d x d/f/ | g x g/f/!8va)! !^!d x5 | %124
!8va(! a x f/g/ a x ^^g/a/ a x g/a/ | a x2!8va)! x6 |!8va(! b x =g/=a/ b x b/^a/ b x b/a/ | %127
 b x2!8va)! x6 |!8va(! ^b x b/a/ g x g/^^f/ e x g/a/ | ^b x b/a/ g x g/^^f/ e x g/a/ | %130
 !>!^b x2 !>!b x2 !>!c' x2 | !>!=d' x2 !>!^d' x2 !>!=e' x2 | x9 | x9 | x9 | x9 | x9 | x6!8va)! x3 | %138
 x9 ||[M:6/8] x6 | x3!8va(! x3 | x6 | x!8va)! x5 | x6 | x6 | x6 | x6 | x6 | x6 | x6 | x6 | %151
 x3!8va(! x3 | x6 | x6 | x6 | x6 | x6!8va)! | x6 | x6 | x6 | x3[K:bass] x3 | x6 | x6 | x6 | x6 | %165
[K:treble] x6 |!8va(! x6 | x!8va)! x5 |] %168
V:4
 x6 | x6 | x6 | x6 || x6 | x4[K:bass] x2 | x6 | x4[K:treble] x2 | x6 | x4[K:bass] x2 | x6 | %11
 x4[K:treble] x2 | x6 | x6 | x6 | x6 | x6 | x6 | x6 | x6 ||[M:9/8] x9 | x9 | x9 | x9 | x9 | x9 | %26
 x9 | x9 | x9 | x9 | x9 | x9 ||[M:2/4]!8va(! x4 | x!8va)! x3 | x4 ||[M:6/8] x6 | x6 | x6 | x6 | %39
 x6 | x6 | x4[K:bass] x2 | x6 | x4[K:treble] x2 | x6 | x4[K:bass] x2 | x6 | x4[K:treble] x2 | x6 | %49
 x6 | x6 | x6 | x6 | x6 | x6 | x6 ||[K:Bb][M:9/8] x9 | x9 | x9 | x9 | x9 | x9 | x9 | x9 | x9 | x9 | %66
 x9 | x9 ||[M:2/4]!8va(! x4 | x3!8va)! x | x4 | x4 | x4 |[K:bass] x4 | x4 | x4 ||[M:6/8] x6 | x6 | %78
 x6 | x6 | x6 | x6 | x6 | x6 | x6 | x6 | x6 | x6 | x6 | x6 | x6 | x6 | x6 | x6 | x6 | x6 | x6 | %97
 x6 | x6 | x6 | x6 | x6 ||[K:A] x6 | x6 | x6 | x6 | x6 | x6 | x6 | x6 | x6 | x6 | x6 | x6 | x6 | %115
 x6 | x6 | x4[K:treble] x2 | x6 | x6 ||[K:F#][M:9/8][K:bass] x[K:treble] x8 |[K:bass] x9 | %122
 x[K:treble] x8 |[K:bass] x9 | x[K:treble] x2[K:bass] x[K:treble] x2[K:bass] x[K:treble] x2 | %125
 x3[K:bass] x6 | x[K:treble] x2[K:bass] x[K:treble] x2[K:bass] x[K:treble] x2 | x3[K:bass] x6 | %128
 x[K:treble] x8 |[K:bass] x[K:treble] x8 | G,2 x =A,2 x ^A,2 x | B,2 x ^B,2 x C2 x | x9 | x9 | x9 | %135
 x9 | x9 | x9 | x6[K:bass] x3 ||[M:6/8] x6 | x6 | x6 | x6 | x6 | x6 | x6 | x6 | x6 | x6 | x6 | x6 | %151
 x6 | x6 | x6 | x6 | x6 | x6 | x6 | x6 | x6 | x6 | x6 | x6 | x6 | x6 | x2[K:treble] x4 | x6 | x6 |] %168

